X:1
T:Rights of an Irishman, The
M:6/8
L:1/8
R:Jig
S:James Goodman (1828?1896) music manuscript collection,
S:vol. 3, p. 153. Mid-19th century, County Cork
Z:AK/Fiddler’s Companion
K:D
DFA AdB|AdB ABc|dcB AGF|EDE FDB,|
DFA AdB|AdB ABc|dcB AGF|EDE D3:|
|:dfa aba|aba agf|gbg faf|ede fdB|
dfa agf|ede fdB|AdB AGF|EDE D3:|]

